!!!!SEGMENT: pl-sa--36-a-i-36--001-003_maldere-pierre-van--symphonia-ex-d-vivace.krn
!!!cenid: 17xx:686
!!!COM: Maldere, Pierre van
!!!COM-rismID: pe30002048
!!!CDT: 1729/10/16-1768/11/01
!!!CNT: Flemish
!!!OPR: Symphonia ex D
!!!OTL: Vivace
!!!OMV: 003
!!!PDT:
!!!AGN: Secular
!!!YEC: Copyright 2022 Narodowy Instytut Fryderyka Chopina (https://polishscores.org)
!!!YEM: License CC-BY-4.0 (https://creativecommons.org/licenses/by/4.0)
!!!SMS-siglum: PL-SA
!!!SMS-shelfmark: 36/A I 36
!!!SMS-shelfwork: 001-003 M
!!!SMS-variant:
!!!SMS-altvar:
!!!NIFC-rismSourceID: 1001034985
!!!NIFC-rismChildID: 1001034985
!!!NIFC-islandoraID: none
!!!URL-pdf-islandora:
!!!URL-scan: https://bc.bdsandomierz.pl/dlibra/publication/1294/edition/1262/content @EN{Scan in the Sandomierz Diocese Digital Library} @PL{Skany w portalu Cyfrowa Biblioteka Diecezjalna w Sandomierzu}
!!!IIIF:
!!!ONB-nifc: UWAGA: części Symphonii: Allegro assai, Largo, Vivace
!!!AIN: 2 cor 1 empty 2 oboe 1 viola 2 violn
!!!key:
**kern	**dynam	**kern	**dynam	**kern	**dynam	**kern	**dynam	**kern	**kern	**kern	**kern
*group3	*	*group3	*	*group3	*	*group3	*	*group2	*group2	*group1	*group1
*part8	*	*part7	*	*part6	*	*part5	*	*part4	*part3	*part2	*part1
*staff8	*	*staff7	*	*staff6	*	*staff5	*	*staff4	*staff3	*staff2	*staff1
*Iempty	*	*Iviola	*	*Ivioln	*	*Ivioln	*	*Icor	*Icor	*Ioboe	*Ioboe
*I"Baſso	*	*I"Alto:. Viola:.	*	*I"Violino. 2.do	*	*I"Violino 1.mo	*	*I"Corno:. 2.do Ex D.:	*I"Corno 1mo. Ex. D.	*I"Oboe:. 2.do	*I"Oboe. 1.mo
*I'B	*	*I'vla	*	*I'vl 2	*	*I'vl 1	*	*I'cor 2	*I'cor 1	*I'ob 2	*I'ob 1
*clefF4	*	*clefC3	*	*clefG2	*	*clefG2	*	*clefG2	*clefG2	*clefG2	*clefG2
*	*	*	*	*	*	*	*	*ITrd6c10	*ITrd6c10	*	*
*k[f#c#]	*	*k[f#c#]	*	*k[f#c#]	*	*k[f#c#]	*	*k[f#c#]	*k[f#c#]	*k[f#c#]	*k[f#c#]
*D:	*	*D:	*	*D:	*	*D:	*	*	*	*D:	*D:
*M3/4	*	*M3/4	*	*M3/4	*	*M3/4	*	*M3/4	*M3/4	*M3/4	*M3/4
=1	=1	=1	=1	=1	=1	=1	=1	=1	=1	=1	=1
!LO:TX:a:t=Vivace	!	!LO:TX:a:t=Vivace	!	!LO:TX:a:t=Vivace&colon;.	!	!LO:TX:a:t=Vivace	!	!LO:TX:a:t=Vivace&colon;.	!LO:TX:a:t=Vivace	!LO:TX:a:t=Vivace	!LO:TX:a:t=Vivace
4D\	.	4d\	.	4ff#\	.	4aa\	.	4D/	4d\	4ff#\	4aa\
4r	.	4d\	.	4ff#\	.	4aa\	.	4D/	4d\	4ff#\	4aa\
4r	.	4d\	.	4ff#\	.	4aa\	.	4D/	4d\	4ff#\	4aa\
=2	=2	=2	=2	=2	=2	=2	=2	=2	=2	=2	=2
4D\	.	4d\	.	4ff#\	.	4aa\	.	4D/	4d\	4ff#\	4aa\
4F#\	.	4a\	.	4r	.	4r	.	4r	4r	4r	4r
4D\	.	4f#\	.	4r	.	4r	.	4r	4r	4r	4r
=3	=3	=3	=3	=3	=3	=3	=3	=3	=3	=3	=3
!	!	!	!	!	!	!	!	!LO:TX:a:t=3	!LO:TX:a:t=3	!LO:TX:a:t=3	!LO:TX:a:t=3
!	!	!	!	!	!	!	!	!LO:N:vis=0	!LO:N:vis=0	!LO:N:vis=0	!LO:N:vis=0
4B\	.	4d\	.	(8dd\L	.	(8dd\L	.	1.r	1.r	1.r	1.r
.	.	.	.	8ddd\)	.	8ddd\)	.	.	.	.	.
4A\	.	4d\	.	(8ddd\	.	(8ddd\	.	.	.	.	.
.	.	.	.	8ccc#\)	.	8ccc#\)	.	.	.	.	.
4G\	.	4d\	.	(8ccc#\	.	(8ccc#\	.	.	.	.	.
.	.	.	.	8bb\J)	.	8bb\J)	.	.	.	.	.
=4	=4	=4	=4	=4	=4	=4	=4	=4	=4	=4	=4
4F#\	.	4d\	.	(8bb\L	.	(8bb\L	.	.	.	.	.
.	.	.	.	8aa\)	.	8aa\)	.	.	.	.	.
4r	.	4r	.	(8gg\	.	(8gg\	.	.	.	.	.
.	.	.	.	8ff#\)	.	8ff#\)	.	.	.	.	.
4r	.	4r	.	(8ee\	.	(8ee\	.	.	.	.	.
.	.	.	.	8dd\J)	.	8dd\J)	.	.	.	.	.
!	!	!	!	!	!	!LO:LB:g=original	!	!	!	!	!
=5	=5	=5	=5	=5	=5	=5	=5	=5	=5	=5	=5
*	*	*tremolo	*	*	*	*	*	*	*	*	*
!	!	!LO:SIC:v:s=8A/L	!	!	!LO:DY:t=p.&colon;	!	!	!	!	!	!
4E\	.	8B/L	p	4a/	p	4a/	.	2.r	2.r	2.r	2.r
!	!	!LO:SIC:v:s=8A/	!	!	!	!	!	!	!	!	!
.	.	8B/	.	.	.	.	.	.	.	.	.
!	!LO:DY:t=p	!	!	!	!	!	!	!	!	!	!
!	!	!LO:SIC:v:s=8A/	!	!	!	!	!	!	!	!	!
4C#\	p	8B/	.	4gg\	.	4gg\	p	.	.	.	.
!	!	!LO:SIC:v:s=8A/	!	!	!	!	!	!	!	!	!
.	.	8B/	.	.	.	.	.	.	.	.	.
!	!	!LO:SIC:v:s=8A/	!	!	!	!	!	!	!	!	!
4D\	.	8B/	.	4ff#\	.	4ff#\	.	.	.	.	.
!	!	!LO:SIC:v:s=8A/J	!	!	!	!	!	!	!	!	!
.	.	8B/J	.	.	.	.	.	.	.	.	.
!	!	!	!	!LO:LB:g=original	!	!	!	!	!	!	!
=6	=6	=6	=6	=6	=6	=6	=6	=6	=6	=6	=6
*	*	*	*	*	*	*	*	*	*	*2\right	*2\right
4AA/	f	8A/L	f	4.cc#\	.	4.cc#\	.	2.AA/	2.A/	2cc#\	2ee\
.	.	8A/	.	.	.	.	.	.	.	.	.
4G\	.	8A/	.	.	.	.	f	.	.	.	.
.	.	8A/	.	(16dd\LL	.	(16dd\LL	.	.	.	.	.
.	.	.	.	16ee\JJ)	.	16ee\JJ)	.	.	.	.	.
4F#\	.	8A/	.	8dd\	.	8dd\	.	.	.	4dd\	4ff#\
.	.	8A/J	.	8r	.	8r	.	.	.	.	.
!LO:LB:g=original	!	!LO:LB:g=original	!	!	!	!	!	!	!	!	!
=7	=7	=7	=7	=7	=7	=7	=7	=7	=7	=7	=7
!	!	!	!	!LO:SIC:v:s=4a/	!	!	!	!LO:TX:a:t=1	!LO:TX:a:t=1	!LO:TX:a:t=1	!LO:TX:a:t=1
4E\	.	8A/L	p	4g/	.	4a/	.	2.r	2.r	2.r	2.r
.	p	8A/	.	.	.	.	.	.	.	.	.
4C#\	.	8A/	.	4gg\	p	4gg\	p	.	.	.	.
.	.	8A/	.	.	.	.	.	.	.	.	.
4D\	.	8A/	.	4ff#\	.	4ff#\	.	.	.	.	.
.	.	8A/J	.	.	.	.	.	.	.	.	.
=8	=8	=8	=8	=8	=8	=8	=8	=8	=8	=8	=8
!LO:SIC:v:s=4AA/	!	!	!	!	!	!	!	!	!	!	!
4GG/	.	8A/L	f	4.cc#\	f	4.cc#\	.	2.AA/	2.A/	2cc#\	2ee\
.	.	8A/	.	.	.	.	.	.	.	.	.
4G\	f	8A/	.	.	.	.	.	.	.	.	.
.	.	8A/	.	(16dd\LL	.	(16dd\LL	f	.	.	.	.
.	.	.	.	16ee\JJ)	.	16ee\JJ)	.	.	.	.	.
4F#\	.	8A/	.	8dd\	.	8dd\	.	.	.	4dd\	4ff#\
.	.	8A/J	.	8r	.	8r	.	.	.	.	.
=9	=9	=9	=9	=9	=9	=9	=9	=9	=9	=9	=9
!	!	!	!	!	!	!	!	!LO:TX:a:t=1	!LO:TX:a:t=1	!LO:TX:a:t=1	!
4G\	.	4B/	.	(8bb\L	.	8bb\L	.	2.r	2.r	2.r	2.r
.	.	.	.	8aa\)	.	8aa\	.	.	.	.	.
4r	.	4r	.	(8gg\	.	8gg\	.	.	.	.	.
.	.	.	.	8ff#\)	.	8ff#\	.	.	.	.	.
4r	.	4r	.	(8ee\	.	8ee\	.	.	.	.	.
.	.	.	.	8dd\J)	.	8dd\J	.	.	.	.	.
=10	=10	=10	=10	=10	=10	=10	=10	=10	=10	=10	=10
8A\L	.	4A/	.	8cc#\L	.	8cc#\L	.	2.AA/	2.A/	4cc#\	4ee\
8B\	.	.	.	8b\J	.	8b\J	.	.	.	.	.
8A\	.	8a\L	.	4a\	.	4a\	.	.	.	(8cc#\L	(8ee\L
8G\	.	8g\	f	.	.	.	.	.	.	8dd\)	8ff#\
8F#\	.	8f#\	.	4r	.	4r	.	.	.	(8cc#\	8ff#\
8E\J	.	8e\J	.	.	.	.	.	.	.	8dd\J)	8gg\J)
!	!	!	!	!	!	!	!	!LO:LB:g=original	!LO:LB:g=original	!LO:LB:g=original	!LO:LB:g=original
=11	=11	=11	=11	=11	=11	=11	=11	=11	=11	=11	=11
4D\	.	4d\	.	4ff#\	.	4aa\	.	4D/	4d\	4ff# 4dd\	4aa\
4r	.	4d\	.	4ff#\	.	4aa\	.	4D/	4d\	4ff# 4dd\	4aa\
4r	.	4d\	.	4ff#\	.	4aa\	.	4D/	4d\	4ff# 4dd\	4aa\
!	!	!	!	!	!	!LO:LB:g=original	!	!	!	!	!
=12	=12	=12	=12	=12	=12	=12	=12	=12	=12	=12	=12
4D\	.	4d\	.	4ff#\	.	4aa\	.	4D/	4d\	4ff#\	4aa\
4F#\	.	4a\	.	4r	.	4r	.	4r	4r	4r	4r
4D\	.	4f#\	.	4r	.	4r	.	4r	4r	4r	4r
=13	=13	=13	=13	=13	=13	=13	=13	=13	=13	=13	=13
!	!	!	!	!	!	!	!	!LO:TX:a:t=3	!LO:TX:a:t=3	!LO:TX:a:t=3	!LO:TX:a:t=3
!	!	!	!	!	!	!	!	!LO:N:vis=0	!LO:N:vis=0	!LO:N:vis=0	!LO:N:vis=0
4B\	.	4d\	.	(8dd\L	.	8dd\L	.	1.r	1.r	1.r	1.r
.	.	.	.	8ddd\)	.	8ddd\	.	.	.	.	.
4A\	.	4d\	.	(8ddd\	.	(8ddd\	.	.	.	.	.
.	.	.	.	8ccc#\)	.	8ccc#\)	.	.	.	.	.
4G\	.	4d\	.	(8ccc#\	.	(8ccc#\	.	.	.	.	.
.	.	.	.	8bb\J)	.	8bb\J)	.	.	.	.	.
!	!	!	!	!LO:LB:g=original	!	!	!	!	!	!	!
=14	=14	=14	=14	=14	=14	=14	=14	=14	=14	=14	=14
4F#\	.	4d\	.	(8bb\L	.	(8bb\L	.	.	.	.	.
.	.	.	.	8aa\)	.	8aa\)	.	.	.	.	.
4r	.	4r	.	(8gg\	.	(8gg\	.	.	.	.	.
.	.	.	.	8ff#\)	.	8ff#\)	.	.	.	.	.
4r	.	4r	.	(8ee\	.	(8ee\	.	.	.	.	.
.	.	.	.	8dd\J)	.	8dd\J)	.	.	.	.	.
!	!	!LO:LB:g=original	!	!	!	!	!	!	!	!	!
=15	=15	=15	=15	=15	=15	=15	=15	=15	=15	=15	=15
4E\	.	8A/L	p	4a/	.	4a/	.	2.r	2.r	2.r	2.r
.	.	8A/	.	.	.	.	.	.	.	.	.
!	!	!	!	!	!	!	!LO:DY:t=p&colon;	!	!	!	!
4C#\	.	8A/	.	4gg\	p	4gg\	p	.	.	.	.
.	.	8A/	.	.	.	.	.	.	.	.	.
4D\	.	8A/	.	4ff#\	.	4ff#\	.	.	.	.	.
.	.	8A/J	.	.	.	.	.	.	.	.	.
=16	=16	=16	=16	=16	=16	=16	=16	=16	=16	=16	=16
4AA/	.	8A/L	f	4.cc#\	.	4.cc#\	.	2.AA/	2.A/	2cc#\	2ee\
.	.	8A/	.	.	.	.	.	.	.	.	.
4G\	.	8A/	.	.	.	.	.	.	.	.	.
.	.	8A/	.	(16dd\LL	.	(16dd\LL	f	.	.	.	.
.	.	.	.	16ee\JJ)	.	16ee\JJ)	.	.	.	.	.
4F#\	.	8A/	.	8dd\	.	8dd\	.	.	.	4dd\	4ff#\
.	.	8A/J	.	8r	.	8r	.	.	.	.	.
!LO:LB:g=original	!	!	!	!	!	!	!	!	!	!	!
=17	=17	=17	=17	=17	=17	=17	=17	=17	=17	=17	=17
!	!	!	!	!	!	!	!	!LO:TX:a:t=1	!LO:TX:a:t=1	!LO:TX:a:t=1	!LO:TX:a:t=1
4E\	.	8A/L	f	4a\	.	4a/	.	2.r	2.r	2.r	2.r
.	.	8A/	.	.	.	.	.	.	.	.	.
4C#\	.	8A/	.	4gg\	p	4gg\	p	.	.	.	.
.	.	8A/	.	.	.	.	.	.	.	.	.
4D\	.	8A/	.	4ff#\	.	4ff#\	.	.	.	.	.
.	.	8A/J	.	.	.	.	.	.	.	.	.
=18	=18	=18	=18	=18	=18	=18	=18	=18	=18	=18	=18
4AA/	.	8A/L	p	4.cc#\	.	4.cc#\	.	2.AA/	2.A/	2cc#\	2ee\
.	.	8A/	.	.	.	.	.	.	.	.	.
4G\	.	8A/	.	.	.	.	.	.	.	.	.
.	.	8A/	.	(16dd\LL	.	(16dd\LL	f	.	.	.	.
.	.	.	.	16ee\JJ)	.	16ee\JJ)	.	.	.	.	.
4F#\	.	8A/	.	8dd\	.	8dd\	.	.	.	4dd\	4ff#\
.	.	8A/J	.	8r	.	8r	.	.	.	.	.
!	!	!	!	!	!	!LO:LB:g=original	!	!	!	!	!
=19	=19	=19	=19	=19	=19	=19	=19	=19	=19	=19	=19
*	*	*	*	*Xtuplet	*	*Xtuplet	*	*	*	*	*
!	!	!	!	!LO:TUP:a:problem=klamra łukowa	!	!LO:TUP:a:problem=klamra łukowa	!	!	!	!LO:TUP:a:problem=klamra łukowa,kropka zamiast numeru	!LO:TUP:a:problem=klamra łukowa
4G\	.	4B/	.	12gg\L	.	12bb\L	.	4r	4r	12gg\L	12bb\L
.	.	.	.	12ff#\	.	12aa\	.	.	.	12ff#\	12aa\
.	.	.	.	12ee\J	.	12bb\J	.	.	.	12ee\J	12gg\J
4A\	.	4A/	.	4dd\	.	4ff#\	.	4AA/	4A/	4dd\	4ff#\
!	!	!	!	!LO:TX:a:t=t	!	!	!	!	!	!	!
4AA/	.	4A/	.	4cc#\	.	4ee\	.	4AA/	4A/	4cc#\	4ee\
=20	=20	=20	=20	=20	=20	=20	=20	=20	=20	=20	=20
*	*	*	*	*2\right	*	*2\right	*	*	*2\right	*	*
!	!	!	!	!LO:SIC:v:s=2dd\	!	!	!	!	!	!	!
8D\L	.	2A/	.	2cc#\	.	2dd\	.	2D/	2d\	2dd\	2dd\
8d\	.	.	.	.	.	.	.	.	.	.	.
8A\	.	.	.	.	.	.	.	.	.	.	.
8G\	.	.	.	.	.	.	.	.	.	.	.
8F#\	.	4r	.	4r	.	4r	.	4r	4r	4r	4r
8E\J	.	.	.	.	.	.	.	.	.	.	.
!	!	!	!	!	!	!	!	!	!LO:LB:g=original	!	!LO:LB:g=original
=21	=21	=21	=21	=21	=21	=21	=21	=21	=21	=21	=21
!	!	!	!	!	!	!	!	!LO:TX:a:t=9	!LO:TX:a:t=9.	!LO:TX:a:t=9.	!LO:TX:a:t=9
!	!	!	!	!	!	!	!	!LO:N:vis=00	!LO:N:vis=00	!LO:N:vis=00	!LO:N:vis=00
4D\	.	4d\	.	2f#/	.	2ff#\	.	0.r	0.r	0.r	0.r
4d\	.	4dd\	f	.	.	.	.	.	.	.	.
4c#\	.	4cc#\	.	4ff#\	.	4aa#X\	.	.	.	.	.
!	!	!	!	!LO:LB:g=original	!	!	!	!	!	!	!
=22	=22	=22	=22	=22	=22	=22	=22	=22	=22	=22	=22
4B\	.	4b\	.	4ff#\	.	4bb\	.	.	.	.	.
4r	.	4r	.	4ee\	.	4ccc#\	.	.	.	.	.
4r	.	4r	.	4dd\	.	4ddd\	.	.	.	.	.
=23	=23	=23	=23	=23	=23	=23	=23	=23	=23	=23	=23
4C#/	.	4c#\	.	2e/	.	2ee\	.	.	.	.	.
4c#\	.	4cc#\	.	.	.	.	.	.	.	.	.
4B\	.	4b\	.	4ee\	.	4gg#X\	.	.	.	.	.
!	!	!LO:LB:g=original	!	!	!	!	!	!	!	!	!
=24	=24	=24	=24	=24	=24	=24	=24	=24	=24	=24	=24
4A\	.	4a\	.	4ee\	.	4aan\	.	.	.	.	.
4r	.	4r	.	4dd\	.	4bb\	.	.	.	.	.
4r	.	4r	.	4cc#\	.	4ccc#\	.	.	.	.	.
=25	=25	=25	=25	=25	=25	=25	=25	=25	=25	=25	=25
!	!	!	!	!	!	!	!	!LO:N:vis=00	!LO:N:vis=00	!LO:N:vis=00	!LO:N:vis=00
4D\	.	4d\	.	2.A/	.	4r	.	0.r	0.r	0.r	0.r
4d\	.	4dd\	.	.	.	4ff#\	.	.	.	.	.
4c#\	.	4cc#\	.	.	.	8.ee\L	.	.	.	.	.
.	.	.	.	.	.	16ff#\Jk	.	.	.	.	.
=26	=26	=26	=26	=26	=26	=26	=26	=26	=26	=26	=26
.	.	.	.	.	.	8qqee/	.	.	.	.	.
4B\	.	4b\	.	4A/	.	2dd\	.	.	.	.	.
!	!	!	!	!LO:SIC:v:s=4G#/	!	!	!	!	!	!	!
4E\	.	4e\	.	4G/	.	.	.	.	.	.	.
4A\	.	4a\	.	4A/	.	4cc#\	.	.	.	.	.
!	!	!	!	!	!	!LO:LB:g=original	!	!	!	!	!
=27	=27	=27	=27	=27	=27	=27	=27	=27	=27	=27	=27
4FF#/	.	4F#/	.	2A/	.	4r	.	.	.	.	.
4F#\	.	4f#\	.	.	.	4ddd\	.	.	.	.	.
4E\	.	4e\	.	4a/	.	8.ccc#\L	.	.	.	.	.
.	.	.	.	.	.	16ddd\Jk	.	.	.	.	.
!LO:LB:g=original	!	!	!	!	!	!	!	!	!	!	!
=28	=28	=28	=28	=28	=28	=28	=28	=28	=28	=28	=28
*2\right	*	*2\right	*	*	*	*	*	*	*	*	*
!LO:N:vis=2.	!	!	!	!	!	!	!	!	!	!	!
2D\	.	2d\	.	4a/	.	2bb\	.	.	.	.	.
.	.	.	.	4g#X/	.	.	.	.	.	.	.
!LO:SIC:v:s=4C#	!	!	!	!	!	!	!	!	!	!	!
4D\	.	4c#\	.	4a/	.	4aa\	.	.	.	.	.
=29	=29	=29	=29	=29	=29	=29	=29	=29	=29	=29	=29
!	!	!	!	!LO:TX:a:problem=dziwny znaczek nad triolą	!	!LO:TUP:a:problem=klamra łukowa	!	!	!	!	!
4D\	.	4f#\	.	12dd\L	.	12ff#\L	.	2.r	2.r	2.r	2.r
.	.	.	.	12cc#\	.	12ee\	.	.	.	.	.
.	.	.	.	12b\J	.	12dd\J	.	.	.	.	.
4E\	.	4e\	.	4a/	.	4cc#\	.	.	.	.	.
4EE/	.	4e\	.	4g#X/	.	4b\	.	.	.	.	.
!	!	!	!	!	!	!	!	!LO:LB:g=original	!	!LO:LB:g=original	!
=30	=30	=30	=30	=30	=30	=30	=30	=30	=30	=30	=30
4AA/	.	4e\	.	2a/	.	2a\	.	4r	4r	4r	4r
8A\L	f	8a\L	.	.	.	.	.	4AA/	4A/	(8cc#\L	8ee\L
8G\	.	8g\	f	.	.	.	.	.	.	8dd\)	8ff#\
8F#\	.	8f#\	.	4r	.	4r	.	4AA/	4A/	(8cc#\	8ff#\
8E\J	.	8e\J	.	.	.	.	.	.	.	8dd\J)	8gg\J
!	!	!	!	!LO:LB:g=original	!	!	!	!	!	!	!
=31	=31	=31	=31	=31	=31	=31	=31	=31	=31	=31	=31
!	!	!	!	!	!	!	!	!	!	!LO:SIC:v:s=4ff#\	!
4D\	.	4d\	.	4ff#\	.	4aa\	.	4D/	4d\	4gg\	4aa\
!	!	!	!	!	!	!	!	!	!	!LO:SIC:v:s=4ff#\	!
4r	.	4d\	.	4ff#\	.	4aa\	.	4D/	4d\	4gg\	4aa\
!	!	!	!	!	!	!	!	!	!	!LO:SIC:v:s=4ff#\	!
4r	.	4d\	.	4ff#\	.	4aa\	.	4D/	4d\	4gg\	4aa\
=32	=32	=32	=32	=32	=32	=32	=32	=32	=32	=32	=32
!	!	!	!	!	!	!	!	!	!	!LO:SIC:v:s=4ff#	!
4D\	.	4d\	.	4ff#\	.	4aa\	.	4D/	4d\	4gg\	4aa\
4F#\	.	4a\	.	4r	.	4r	.	4r	4r	4r	4r
4D\	.	4f#\	.	4r	.	4r	.	4r	4r	4r	4r
!	!	!LO:LB:g=original	!	!	!	!	!	!	!	!	!
=33	=33	=33	=33	=33	=33	=33	=33	=33	=33	=33	=33
!	!	!	!	!	!	!	!	!LO:TX:a:t=3	!LO:TX:a:t=3	!LO:TX:a:t=3	!LO:TX:a:t=3
!	!	!	!	!	!	!	!	!LO:N:vis=0	!LO:N:vis=0	!LO:N:vis=0	!LO:N:vis=0
4B\	.	4d\	.	8dd\L	.	(8dd\L	.	1.r	1.r	1.r	1.r
.	.	.	.	8ddd\	.	8ddd\)	.	.	.	.	.
4A\	.	4d\	.	8ddd\	.	(8ddd\	.	.	.	.	.
.	.	.	.	8ccc#\	.	8ccc#\)	.	.	.	.	.
4G\	.	4d\	.	8ccc#\	.	(8ccc#\	.	.	.	.	.
.	.	.	.	8bb\J	.	8bb\J)	.	.	.	.	.
!	!	!	!	!	!	!LO:LB:g=original	!	!	!	!	!
=34	=34	=34	=34	=34	=34	=34	=34	=34	=34	=34	=34
4F#\	.	4d\	.	8bb\L	.	(8bb\L	.	.	.	.	.
.	.	.	.	8aa\	.	8aa\)	.	.	.	.	.
4r	.	4r	.	8gg\	.	(8gg\	.	.	.	.	.
.	.	.	.	8ff#\	.	8ff#\)	.	.	.	.	.
4r	.	4r	.	8ee\	.	(8ee\	.	.	.	.	.
.	.	.	.	8dd\J	.	8dd\J)	.	.	.	.	.
=35	=35	=35	=35	=35	=35	=35	=35	=35	=35	=35	=35
4E\	.	8A/L	p	4a/	.	4a/	.	2.r	2.r	2.r	2.r
.	.	8A/	.	.	.	.	.	.	.	.	.
4C#\	.	8A/	.	4gg\	.	4gg\	p	.	.	.	.
.	.	8A/	.	.	.	.	.	.	.	.	.
!	!	!	!	!LO:TX:a:t=vi//	!	!	!	!	!	!	!
4E\	.	8A/	.	4ff#\	.	4ff#\	.	.	.	.	.
.	.	8A/J	.	.	.	.	.	.	.	.	.
=36	=36	=36	=36	=36	=36	=36	=36	=36	=36	=36	=36
!	!	!	!	!LO:TX:a:t=P:problem=8 taktów dopisanych na dole strony	!	!	!	!	!	!	!
!	!	!	!	!LO:TX:a:t=de//	!	!	!	!	!	!	!
4AA/	.	8A/L	f	4.cc#\	.	4.cc#\	f	2.AA/	2.A/	2cc#\	2ee\
.	.	8A/	.	.	.	.	.	.	.	.	.
4G\	.	8A/	.	.	.	.	.	.	.	.	.
.	.	8A/	.	(16dd\LL	.	(16dd\LL	.	.	.	.	.
.	.	.	.	16ee\JJ)	.	16ee\JJ)	.	.	.	.	.
4F#\	.	8A/	.	8dd\	.	8dd\	.	.	.	4dd\	4ff#\
.	.	8A/J	.	8r	.	8r	.	.	.	.	.
=37	=37	=37	=37	=37	=37	=37	=37	=37	=37	=37	=37
!	!	!	!	!	!	!	!	!LO:TX:a:t=1	!LO:TX:a:t=1	!LO:TX:a:t=1	!LO:TX:a:t=1
4E\	.	8A/L	p	4a/	.	4a\	p	2.r	2.r	2.r	2.r
.	.	8A/	.	.	.	.	.	.	.	.	.
!	!	!	!	!	!LO:DY:t=p	!	!	!	!	!	!
4C#\	.	8A/	.	4gg\	p	4gg\	.	.	.	.	.
.	.	8A/	.	.	.	.	.	.	.	.	.
4D\	.	8A/	.	4ff#\	.	4ff#\	.	.	.	.	.
.	.	8A/J	.	.	.	.	.	.	.	.	.
=38	=38	=38	=38	=38	=38	=38	=38	=38	=38	=38	=38
4AA/	.	8A/L	f	4.cc#\	.	4.cc#\	.	2.AA/	2.A/	2cc#\	2ee\
.	.	8A/	.	.	.	.	.	.	.	.	.
!	!	!	!	!	!LO:DY:t=f	!	!	!	!	!	!
4G\	.	8A/	.	.	f	.	.	.	.	.	.
.	.	8A/	.	(16dd\LL	.	(16dd\LL	f	.	.	.	.
.	.	.	.	16ee\JJ)	.	16ee\JJ)	.	.	.	.	.
4F#\	.	8A/	.	8dd\	.	8dd\	.	.	.	4dd\	4ff#\
.	.	8A/J	.	8r	.	8r	.	.	.	.	.
!LO:LB:g=original	!	!	!	!	!	!	!	!	!	!	!
=39	=39	=39	=39	=39	=39	=39	=39	=39	=39	=39	=39
!	!	!	!	!	!	!	!	!LO:TX:a:t=1	!LO:TX:a:t=1	!LO:TX:a:t=1	!LO:TX:a:t=1
4G\	.	4B/	.	(8bb\L	.	(8bb\L	.	2.r	2.r	2.r	2.r
.	.	.	.	8aa\)	.	8aa\)	.	.	.	.	.
4r	.	4r	.	(8gg\	.	(8gg\	.	.	.	.	.
.	.	.	.	8ff#\)	.	8ff#\)	.	.	.	.	.
4r	.	4r	.	8ee\	.	(8ee\	.	.	.	.	.
.	.	.	.	8dd\J	.	8dd\J)	.	.	.	.	.
!	!	!	!	!LO:LB:g=original	!	!LO:LB:g=original	!	!	!LO:LB:g=original	!	!LO:LB:g=original
=40	=40	=40	=40	=40	=40	=40	=40	=40	=40	=40	=40
8A\L	.	4A/	.	(8cc#\L	.	(8cc#\L	.	2.AA/	2.A/	4cc#\	4ee\
8B\	.	.	.	8b\J)	.	8b\J)	.	.	.	.	.
8A\	.	8a\L	.	4a\	.	4a\	.	.	.	8cc#\L	(8ee\L
8G\	.	8g\	f	.	.	.	.	.	.	8dd\	8ff#\)
8F#\	.	8f#\	.	4r	.	4r	.	.	.	8dd\	(8ff#\
8E\J	.	8e\J	.	.	.	.	.	.	.	8ee\J	8gg\J)
!	!	!	!	!	!	!	!	!	!	!LO:LB:g=original	!
=41	=41	=41	=41	=41	=41	=41	=41	=41	=41	=41	=41
4D\	.	4d\	.	4ff#\	.	4aa\	.	4D/	4d\	4ff#\	4aa\
4r	.	4d\	.	4ff#\	.	4aa\	.	4D/	4d\	4ff#\	4aa\
4r	.	4d\	.	4ff#\	.	4aa\	.	4D/	4d\	4ff#\	4aa\
!	!	!LO:LB:g=original	!	!	!	!	!	!LO:LB:g=original	!	!	!
=42	=42	=42	=42	=42	=42	=42	=42	=42	=42	=42	=42
4D\	.	4d\	.	4ff#\	.	4aa\	.	4D/	4d\	4ff#\	4aa\
4F#\	.	4a\	.	4r	.	4r	.	4r	4r	4r	4r
4D\	.	4f#\	.	4r	.	4r	.	4r	4r	4r	4r
=43	=43	=43	=43	=43	=43	=43	=43	=43	=43	=43	=43
!	!	!	!	!	!	!	!	!LO:TX:a:t=3	!LO:TX:a:t=3	!LO:TX:a:t=3	!LO:TX:a:t=3
!	!	!	!	!	!	!	!	!LO:N:vis=0	!LO:N:vis=0	!LO:N:vis=0	!LO:N:vis=0
4B\	.	4d\	.	8dd\L	.	(8dd\L	.	1.r	1.r	1.r	1.r
.	.	.	.	8ddd\	.	8ddd\)	.	.	.	.	.
4A\	.	4d\	.	8ddd\	.	(8ddd\	.	.	.	.	.
.	.	.	.	8ccc#\	.	8ccc#\)	.	.	.	.	.
4G\	.	4d\	.	8ccc#\	.	(8ccc#\	.	.	.	.	.
!	!	!	!	!LO:TX:a:t=re/	!	!	!	!	!	!	!
.	.	.	.	8bb\J	.	8bb\J)	.	.	.	.	.
=44	=44	=44	=44	=44	=44	=44	=44	=44	=44	=44	=44
!	!	!	!	!LO:TX:b:t=//tro&colon;	!	!	!	!	!	!	!
4F#\	.	4d\	.	(8bb\L	.	(8bb\L	.	.	.	.	.
.	.	.	.	8aa\)	.	8aa\)	.	.	.	.	.
4r	.	4r	.	(8gg\	.	(8gg\	.	.	.	.	.
.	.	.	.	8ff#\)	.	8ff#\)	.	.	.	.	.
4r	.	4r	.	(8ee\	.	(8ee\	.	.	.	.	.
.	.	.	.	8dd\J)	.	8dd\J)	.	.	.	.	.
=45	=45	=45	=45	=45	=45	=45	=45	=45	=45	=45	=45
4E\	.	8A/L	p	4a/	.	4a/	p	2.r	2.r	2.r	2.r
.	.	8A/	.	.	.	.	.	.	.	.	.
4C#\	.	8A/	.	4gg\	.	4gg\	.	.	.	.	.
.	.	8A/	.	.	.	.	.	.	.	.	.
4D\	.	8A/	.	4ff#\	.	4ff#\	.	.	.	.	.
.	.	8A/J	.	.	.	.	.	.	.	.	.
!	!	!	!	!	!	!LO:LB:g=original	!	!	!	!	!
=46	=46	=46	=46	=46	=46	=46	=46	=46	=46	=46	=46
4AA/	.	8A/L	f	4.cc#\	.	4.cc#\	.	2.AA/	2.A/	2cc#\	2ee\
.	.	8A/	.	.	.	.	.	.	.	.	.
4G\	.	8A/	.	.	.	.	f	.	.	.	.
.	.	8A/	.	(16dd\LL	.	(16dd\LL	.	.	.	.	.
.	.	.	.	16ee\JJ)	.	16ee\JJ)	.	.	.	.	.
4F#\	.	8A/	.	8dd\	.	8dd\	.	.	.	4dd\	4ff#\
.	.	8A/J	.	8r	.	8r	.	.	.	.	.
!	!	!	!	!LO:LB:g=original	!	!	!	!	!	!	!
=47	=47	=47	=47	=47	=47	=47	=47	=47	=47	=47	=47
!	!	!	!	!	!	!	!	!LO:TX:a:t=1	!LO:TX:a:t=1	!LO:TX:a:t=1	!LO:TX:a:t=1
4E\	.	8A/L	p	4a/	.	4a\	.	2.r	2.r	2.r	2.r
.	.	8A/	.	.	p	.	p	.	.	.	.
4C#\	.	8A/	.	4gg\	.	4gg\	.	.	.	.	.
.	.	8A/	.	.	.	.	.	.	.	.	.
4D\	.	8A/	.	4ff#\	.	4ff#\	.	.	.	.	.
.	.	8A/J	.	.	.	.	.	.	.	.	.
=48	=48	=48	=48	=48	=48	=48	=48	=48	=48	=48	=48
4AA/	.	8A/L	f	4.cc#\	.	4.cc#\	.	2.AA/	2.A/	2cc#\	2ee\
.	.	8A/	.	.	.	.	.	.	.	.	.
4G\	.	8A/	.	.	.	.	.	.	.	.	.
.	.	8A/	.	(16dd\LL	.	(16dd\LL	.	.	.	.	.
.	.	.	.	16ee\JJ)	.	16ee\JJ)	.	.	.	.	.
4F#\	.	8A/	.	8dd\	.	8dd\	.	.	.	4dd\	4ff#\
.	.	8A/J	.	8r	.	8r	.	.	.	.	.
=49	=49	=49	=49	=49	=49	=49	=49	=49	=49	=49	=49
*	*	*	*	*tuplet	*	*	*	*	*	*	*
!	!	!	!	!LO:TUP:a:problem=klamra łukowa, kropka zamiast numeru	!	!	!	!	!	!LO:TUP:a:problem=klamra łukowa	!LO:TUP:a:problem=klamra łukowa
4G\	.	4B/	.	12gg\L	.	12bb\L	.	4r	4r	12gg\L	12bb\L
.	.	.	.	12ff#\	.	12aa\	.	.	.	12ff#\	12aa\
.	.	.	.	12ee\J	.	12gg\J	.	.	.	12ee\J	12gg\J
4A\	.	4A/	.	4dd\	.	4ff#\	.	4AA/	4A/	4dd\	4ff#\
4AA/	.	4A/	.	4cc#\	.	4ee\	.	4AA/	4A/	4cc#\	4ee\
!LO:LB:g=original	!	!	!	!	!	!	!	!	!	!	!LO:LB:g=original
=50	=50	=50	=50	=50	=50	=50	=50	=50	=50	=50	=50
8D\L	.	2A/	.	2dd\	.	2dd\	.	2D/	2d\	2dd\	2dd\
8d\	.	.	.	.	.	.	.	.	.	.	.
8A\	.	.	.	.	.	.	.	.	.	.	.
8G\	.	.	.	.	.	.	.	.	.	.	.
8Fn\	.	4r	.	4r	.	4r	.	4r	4r	4r	4r
8E\J	.	.	.	.	.	.	.	.	.	.	.
!	!	!	!	!	!	!LO:PB:g=original	!	!	!LO:LB:g=original	!LO:LB:g=original	!
=51	=51	=51	=51	=51	=51	=51	=51	=51	=51	=51	=51
*k[]	*	*k[]	*	*k[]	*	*k[]	*	*	*	*	*
*a:	*	*a:	*	*a:	*	*a:	*	*	*	*	*
!	!	!	!	!	!	!	!	!LO:TX:a:t=30.	!LO:TX:a:t=30.	!LO:TX:a:t=30.	!LO:TX:a:t=30.
!	!	!	!	!	!	!	!	!LO:N:vis=00	!LO:N:vis=00	!LO:N:vis=00	!LO:N:vis=00
8D\L	.	8d\L	.	2.dd\	.	2.aa\	.	0.r	0.r	0.r	0.r
8E\	.	8e\	.	.	.	.	.	.	.	.	.
8F\	.	8f\	.	.	.	.	.	.	.	.	.
8E\	.	8e\	.	.	.	.	.	.	.	.	.
8F\	.	8f\	.	.	.	.	.	.	.	.	.
8D\J	.	8d\J	.	.	.	.	.	.	.	.	.
!	!	!LO:LB:g=original	!	!	!	!	!	!	!	!	!
=52	=52	=52	=52	=52	=52	=52	=52	=52	=52	=52	=52
8G\L	.	8g\L	.	4dd\	.	4bb-X\	.	.	.	.	.
8A\	.	8a\	.	.	.	.	.	.	.	.	.
8B-X\	.	8b-X\	.	4r	.	4r	.	.	.	.	.
8A\	.	8a\	.	.	.	.	.	.	.	.	.
8B-\	.	8b-\	.	4r	.	4r	.	.	.	.	.
8G\J	.	8g\J	.	.	.	.	.	.	.	.	.
=53	=53	=53	=53	=53	=53	=53	=53	=53	=53	=53	=53
8A\L	.	8a\L	.	2.e/	.	2.cc#X\	.	.	.	.	.
8B-X\	.	8b-X\	.	.	.	.	.	.	.	.	.
8A\	.	8a\	.	.	.	.	.	.	.	.	.
8G\	.	8g\	.	.	.	.	.	.	.	.	.
8F\	.	8f\	.	.	.	.	.	.	.	.	.
8E\J	.	8e\J	.	.	.	.	.	.	.	.	.
=54	=54	=54	=54	=54	=54	=54	=54	=54	=54	=54	=54
8D\L	.	8d\L	.	4f/	.	4dd\	.	.	.	.	.
8E\	.	8e\	.	.	.	.	.	.	.	.	.
8F\	.	8f\	.	4r	.	4r	.	.	.	.	.
8E\	.	8e\	.	.	.	.	.	.	.	.	.
8F\	.	8f\	.	4r	.	4r	.	.	.	.	.
8D\J	.	8d\J	.	.	.	.	.	.	.	.	.
!	!	!	!	!LO:PB:g=original	!	!	!	!	!	!	!
=55	=55	=55	=55	=55	=55	=55	=55	=55	=55	=55	=55
*	*	*	*	*k[f#c#]	*	*	*	*	*	*	*
!LO:TX:a:t=P:problem=mixed beam	!	!LO:TX:a:t=P:problem=mixed beam	!	!	!	!	!	!	!	!	!
!	!	!	!	!	!	!	!	!LO:N:vis=00	!LO:N:vis=00	!LO:N:vis=00	!LO:N:vis=00
8A\L	.	8a\L	.	(4cc#\	.	4ee\	.	0.r	0.r	0.r	0.r
8AA/	.	8A/	.	.	.	.	.	.	.	.	.
8C#X/	.	8c#X/	.	4ee\)	.	4gg\	.	.	.	.	.
!	!	!LO:SIC:v:s=8Bn/	!	!	!	!	!	!	!	!	!
8BBn/	.	8A/	.	.	.	.	.	.	.	.	.
8C#/	.	8c#/	.	4r	.	4r	.	.	.	.	.
8AA/J	.	8A/J	.	.	.	.	.	.	.	.	.
=56	=56	=56	=56	=56	=56	=56	=56	=56	=56	=56	=56
8d\L	.	8dd\L	.	4a\	.	4ff\	.	.	.	.	.
8D\	.	8d\	.	.	.	.	.	.	.	.	.
8F\	.	8f\	.	4dd\	.	4aa\	.	.	.	.	.
8E\	.	8e\	.	.	.	.	.	.	.	.	.
8F\	.	8f\	.	4r	.	4r	.	.	.	.	.
8D\J	.	8d\J	.	.	.	.	.	.	.	.	.
=57	=57	=57	=57	=57	=57	=57	=57	=57	=57	=57	=57
4d\	.	4dd\	.	(8a\L	.	(8ddd\L	.	.	.	.	.
!	!	!	!	!LO:SIC:v:s=8ffn\)	!	!	!	!	!	!	!
.	.	.	.	8ff#\)	.	8aa\)	.	.	.	.	.
!	!	!	!	!LO:SIC:v:s=(8ffn\	!	!	!	!	!	!	!
4c#X\	.	4cc#X\	.	(8ff#\	.	(8aa\	.	.	.	.	.
.	.	.	.	8ee\)	.	8gg\)	.	.	.	.	.
4d\	.	4dd\	.	(8ee\	.	(8gg\	.	.	.	.	.
.	.	.	.	8dd\J)	.	8ff\J)	.	.	.	.	.
!LO:LB:g=original	!	!	!	!	!	!	!	!	!	!	!
=58	=58	=58	=58	=58	=58	=58	=58	=58	=58	=58	=58
.	.	.	.	8qqdd/	.	8qqff/	.	.	.	.	.
8A\L	.	8a\L	.	2cc#X\	.	2ee\	.	.	.	.	.
8B-X\	.	8b-X\	.	.	.	.	.	.	.	.	.
8A\	.	8a\	.	.	.	.	.	.	.	.	.
8G\	.	8g\	.	.	.	.	.	.	.	.	.
8F\	.	8f\	.	4r	.	4r	.	.	.	.	.
8E\J	.	8e\J	.	.	.	.	.	.	.	.	.
!	!	!LO:PB:g=original	!	!	!	!	!	!	!	!	!
=59	=59	=59	=59	=59	=59	=59	=59	=59	=59	=59	=59
!	!	!	!	!	!	!	!	!LO:N:vis=00	!LO:N:vis=00	!LO:N:vis=00	!LO:N:vis=00
8D\L	.	8d\L	.	2.dd\	.	2.aa\	.	0.r	0.r	0.r	0.r
8E\	.	8e\	.	.	.	.	.	.	.	.	.
8F\	.	8f\	.	.	.	.	.	.	.	.	.
8E\	.	8e\	.	.	.	.	.	.	.	.	.
8F\	.	8f\	.	.	.	.	.	.	.	.	.
!LO:SIC:v:s=8D\J	!	!	!	!	!	!	!	!	!	!	!
8E\J	.	8d\J	.	.	.	.	.	.	.	.	.
!	!	!	!	!	!	!LO:LB:g=original	!	!	!	!	!
=60	=60	=60	=60	=60	=60	=60	=60	=60	=60	=60	=60
8G\L	.	8g\L	.	4dd\	.	4bb-X\	.	.	.	.	.
8A\	.	8a\	.	.	.	.	.	.	.	.	.
8B-X\	.	8b-X\	.	4r	.	4r	.	.	.	.	.
8A\	.	8a\	.	.	.	.	.	.	.	.	.
8B-\	.	8b-\	.	4r	.	4r	.	.	.	.	.
8G\J	.	8g\J	.	.	.	.	.	.	.	.	.
=61	=61	=61	=61	=61	=61	=61	=61	=61	=61	=61	=61
8A\L	.	8a\L	.	2.e/	.	2.cc#X\	.	.	.	.	.
!	!	!LO:SIC:v:s=8b-\	!	!	!	!	!	!	!	!	!
8B-X\	.	8b\	.	.	.	.	.	.	.	.	.
8A\	.	8a\	.	.	.	.	.	.	.	.	.
8G\	.	8g\	.	.	.	.	.	.	.	.	.
8F\	.	8f\	.	.	.	.	.	.	.	.	.
8E\J	.	8e\J	.	.	.	.	.	.	.	.	.
=62	=62	=62	=62	=62	=62	=62	=62	=62	=62	=62	=62
!	!	!	!	!LO:SIC:v:s=4fn/	!	!	!	!	!	!	!
8D\L	.	8d\L	.	4f#/	.	4dd\	.	.	.	.	.
8E\	.	8e\	.	.	.	.	.	.	.	.	.
8F\	.	8f\	.	4r	.	4r	.	.	.	.	.
8E\	.	8e\	.	.	.	.	.	.	.	.	.
8F\	.	8f\	.	4r	.	4r	.	.	.	.	.
8D\J	.	8d\J	.	.	.	.	.	.	.	.	.
=63	=63	=63	=63	=63	=63	=63	=63	=63	=63	=63	=63
!LO:TX:a:t=P:problem=mixed beam	!	!LO:TX:a:t=P:problem=mixed beam	!	!	!	!	!	!	!	!	!
!	!	!	!	!	!	!	!	!LO:N:vis=00	!LO:N:vis=00	!LO:N:vis=00	!LO:N:vis=00
8A\L	.	8a\L	.	(4cc#\	.	4ee\	.	0.r	0.r	0.r	0.r
8AA/	.	8A/	.	.	.	.	.	.	.	.	.
8C#X/	.	8c#X/	.	4ee\)	.	4gg\	.	.	.	.	.
!	!	!LO:SIC:v:s=8Bn/	!	!	!	!	!	!	!	!	!
8BBn/	.	8A/	.	.	.	.	.	.	.	.	.
8C#/	.	8c#/	.	4r	.	4r	.	.	.	.	.
8AA/J	.	8A/J	.	.	.	.	.	.	.	.	.
=64	=64	=64	=64	=64	=64	=64	=64	=64	=64	=64	=64
8d\L	.	8dd\L	.	(4a\	.	4ff\	.	.	.	.	.
8D\	.	8d\	.	.	.	.	.	.	.	.	.
8F\	.	8f\	.	4dd\)	.	4aa\	.	.	.	.	.
8E\	.	8e\	.	.	.	.	.	.	.	.	.
8F\	.	8f\	.	4r	.	4r	.	.	.	.	.
8D\J	.	8d\J	.	.	.	.	.	.	.	.	.
!	!	!	!	!LO:LB:g=original	!	!	!	!	!	!	!
=65	=65	=65	=65	=65	=65	=65	=65	=65	=65	=65	=65
4d\	.	4dd\	.	(8a\L	.	(8ddd\L	.	.	.	.	.
!	!	!	!	!LO:SIC:v:s=8ffn\)	!	!	!	!	!	!	!
.	.	.	.	8ff#\)	.	8aa\)	.	.	.	.	.
!	!	!	!	!LO:SIC:v:s=(8ffn\	!	!	!	!	!	!	!
4c#X\	.	4cc#X\	.	(8ff#\	.	(8aa\	.	.	.	.	.
.	.	.	.	8ee\)	.	8gg\)	.	.	.	.	.
4d\	.	4dd\	.	8ee\	.	(8gg\	.	.	.	.	.
.	.	.	.	8dd\J	.	8ff\J)	.	.	.	.	.
!LO:LB:g=original	!	!LO:LB:g=original	!	!	!	!	!	!	!	!	!
=66	=66	=66	=66	=66	=66	=66	=66	=66	=66	=66	=66
.	.	.	.	8qqdd/	.	8qqff/	.	.	.	.	.
8A\L	.	8a\L	.	2cc#X\	.	2ee\	.	.	.	.	.
8A\	.	8a\	.	.	.	.	.	.	.	.	.
8E\	.	8e\	.	.	.	.	.	.	.	.	.
8C#X\J	.	8c#X\J	.	.	.	.	.	.	.	.	.
4AA/	.	4A/	.	4r	.	4r	.	.	.	.	.
=67	=67	=67	=67	=67	=67	=67	=67	=67	=67	=67	=67
!	!	!	!	!	!	!	!	!LO:N:vis=00	!LO:N:vis=00	!LO:N:vis=00	!LO:N:vis=00
8F\L	.	8f\L	.	(2.ffn\	.	2.aa\	.	0.r	0.r	0.r	0.r
8E\	.	8e\	.	.	.	.	.	.	.	.	.
8F\	.	8f\	.	.	.	.	.	.	.	.	.
8G\	.	8g\	.	.	.	.	.	.	.	.	.
8A\	.	8a\	.	.	.	.	.	.	.	.	.
8B-X\J	.	8b-X\J	.	.	.	.	.	.	.	.	.
=68	=68	=68	=68	=68	=68	=68	=68	=68	=68	=68	=68
8cn\L	.	8cc\L	.	4ee\)	.	4gg\	.	.	.	.	.
8c\	.	8cc\	.	.	.	.	.	.	.	.	.
8G\	.	8g\	.	4r	.	4r	.	.	.	.	.
8c\	.	8cc\	.	.	.	.	.	.	.	.	.
8E\	.	8e\	.	4r	.	4r	.	.	.	.	.
8G\J	.	8g\J	.	.	.	.	.	.	.	.	.
!	!	!	!	!	!	!LO:LB:g=original	!	!	!	!	!
=69	=69	=69	=69	=69	=69	=69	=69	=69	=69	=69	=69
8C\L	.	8c\L	.	(2.gg\	.	2.bb-X\	.	.	.	.	.
8D\	.	8d\	.	.	.	.	.	.	.	.	.
8E\	.	8e\	.	.	.	.	.	.	.	.	.
8D\	.	8d\	.	.	.	.	.	.	.	.	.
8E\	.	8e\	.	.	.	.	.	.	.	.	.
8C\J	.	8c\J	.	.	.	.	.	.	.	.	.
=70	=70	=70	=70	=70	=70	=70	=70	=70	=70	=70	=70
!	!	!	!	!LO:SIC:v:s=4ffn\)	!	!	!	!	!	!	!
8F\L	.	8f\L	.	4ff#\)	.	4aa\	.	.	.	.	.
8G\	.	8g\	.	.	.	.	.	.	.	.	.
8A\	.	8a\	.	4r	.	4r	.	.	.	.	.
8G\	.	8g\	.	.	.	.	.	.	.	.	.
8A\	.	8a\	.	4r	.	4r	.	.	.	.	.
8F\J	.	8f\J	.	.	.	.	.	.	.	.	.
=71	=71	=71	=71	=71	=71	=71	=71	=71	=71	=71	=71
!	!	!	!	!	!	!	!	!LO:N:vis=00	!LO:N:vis=00	!LO:N:vis=00	!LO:N:vis=00
8B-X\L	.	8b-X\L	.	2dd\	.	2dd\	.	0.r	0.r	0.r	0.r
8A\	.	8a\	.	.	.	.	.	.	.	.	.
8B-\	.	8b-\	.	.	.	.	.	.	.	.	.
8G\	.	8g\	.	.	.	.	.	.	.	.	.
8c\	.	8cc\	.	4ccn\	.	4ee\	.	.	.	.	.
8B-\J	.	8b-\J	.	.	.	.	.	.	.	.	.
=72	=72	=72	=72	=72	=72	=72	=72	=72	=72	=72	=72
!	!	!	!	!LO:SIC:v:s=2ccn\	!	!	!	!	!	!	!
8A\L	.	8a\L	.	2cc#\	.	4ff\	.	.	.	.	.
8G\	.	8g\	.	.	.	.	.	.	.	.	.
!	!	!	!	!	!	!LO:SIC:v:s=4cc\	!	!	!	!	!
8A\	.	8a\	.	.	.	4dd\	.	.	.	.	.
8F\	.	8f\	.	.	.	.	.	.	.	.	.
8G\	.	8g\	.	4r	.	4r	.	.	.	.	.
8A\J	.	8a\J	.	.	.	.	.	.	.	.	.
!LO:LB:g=original	!	!LO:LB:g=original	!	!	!	!	!	!	!	!	!
=73	=73	=73	=73	=73	=73	=73	=73	=73	=73	=73	=73
8B-X\L	.	8b-X\L	.	2dd\	.	2dd\	.	.	.	.	.
8A\	.	8a\	.	.	.	.	.	.	.	.	.
8B-\	.	8b-\	.	.	.	.	.	.	.	.	.
8G\	.	8g\	.	.	.	.	.	.	.	.	.
8c\	.	8cc\	.	4ccn\	.	4ee\	.	.	.	.	.
8B-\J	.	8b-\J	.	.	.	.	.	.	.	.	.
=74	=74	=74	=74	=74	=74	=74	=74	=74	=74	=74	=74
!	!	!	!	!LO:SIC:v:s=2ccn\	!	!	!	!	!	!	!
8A\L	.	8a\L	.	2cc#\	.	4ff\	.	.	.	.	.
8G\	.	8g\	.	.	.	.	.	.	.	.	.
8A\	.	8a\	.	.	.	4cc\	.	.	.	.	.
8F\	.	8f\	.	.	.	.	.	.	.	.	.
8G\	.	8g\	.	4r	.	4r	.	.	.	.	.
8A\J	.	8a\J	.	.	.	.	.	.	.	.	.
=75	=75	=75	=75	=75	=75	=75	=75	=75	=75	=75	=75
!LO:TX:a:t=P:problem=mixed beam	!	!LO:SIC:v:s=8b-\L	!	!LO:SIC:v:s=12bb-\L	!	!	!	!LO:N:vis=00	!LO:N:vis=00	!LO:N:vis=00	!LO:N:vis=00
!	!	!	!	!LO:TUP:a:problem=klamra łukowa	!	!	!	!	!	!	!
8B-X\L	.	8b\L	.	12bb\L	.	12ddd\L	.	0.r	0.r	0.r	0.r
.	.	.	.	12aa\	.	12ccc\	.	.	.	.	.
8d\	.	8dd\	.	.	.	.	.	.	.	.	.
!	!	!	!	!	!	!LO:TX:a:t=P:problem=łuk nad tą nutą, zapewne przesunięta klamra łukowa triolo	!	!	!	!	!
.	.	.	.	12gg\J	.	12bb-X\J	.	.	.	.	.
8c\	.	8cc\	.	4ffn\	.	4aa\	.	.	.	.	.
!	!	!LO:SIC:v:s=8b-\	!	!	!	!	!	!	!	!	!
8B-\	.	8b\	.	.	.	.	.	.	.	.	.
!	!	!	!	!LO:TX:a:t=t	!	!	!	!	!	!	!
8c\	.	8cc\	.	4ee\	.	4gg\	.	.	.	.	.
8C/J	.	8c\J	.	.	.	.	.	.	.	.	.
!	!	!	!	!LO:LB:g=original	!	!	!	!	!	!	!
=76	=76	=76	=76	=76	=76	=76	=76	=76	=76	=76	=76
!	!	!	!	!LO:SIC:v:s=2ffn\	!	!	!	!	!	!	!
8F\L	.	8f\L	.	2ff#\	.	2ff\	.	.	.	.	.
8G\	.	8g\	.	.	.	.	.	.	.	.	.
8A\	.	8a\	.	.	.	.	.	.	.	.	.
8G\	.	8g\	.	.	.	.	.	.	.	.	.
8F\	.	8f\	.	4r	.	4r	.	.	.	.	.
8E\J	.	8e\J	.	.	.	.	.	.	.	.	.
=77	=77	=77	=77	=77	=77	=77	=77	=77	=77	=77	=77
8D\L	.	8d\L	.	2.a/	.	2.ff#X\	.	.	.	.	.
8A\	.	8a\	.	.	.	.	.	.	.	.	.
8d\	.	8dd\	.	.	.	.	.	.	.	.	.
8e\	.	8ee\	.	.	.	.	.	.	.	.	.
8d\	.	8dd\	.	.	.	.	.	.	.	.	.
8c\J	.	8cc\J	.	.	.	.	.	.	.	.	.
!	!	!	!	!	!	!LO:LB:g=original	!	!	!	!	!
=78	=78	=78	=78	=78	=78	=78	=78	=78	=78	=78	=78
!	!	!LO:SIC:v:s=8b-\L	!	!	!	!	!	!	!	!	!
8B-X\L	.	8b\L	.	4b-X/	.	4gg\	.	.	.	.	.
8c\	.	8cc\	.	.	.	.	.	.	.	.	.
!	!	!LO:SIC:v:s=8b-\	!	!	!	!	!	!	!	!	!
8B-\	.	8b\	.	4r	.	4r	.	.	.	.	.
8A\	.	8a\	.	.	.	.	.	.	.	.	.
8G\	.	8g\	.	4r	.	4r	.	.	.	.	.
8F\J	.	8f\J	.	.	.	.	.	.	.	.	.
=79	=79	=79	=79	=79	=79	=79	=79	=79	=79	=79	=79
!	!	!	!	!	!	!	!	!LO:N:vis=0	!LO:N:vis=0	!LO:N:vis=0	!LO:N:vis=0
8En\L	.	8e\L	.	2.bn\	.	2.gg#X\	.	1.r	1.r	1.r	1.r
8Bn\	.	8bn\	.	.	.	.	.	.	.	.	.
!	!	!LO:SIC:v:s=8ee\	!	!	!	!	!	!	!	!	!
8e\	.	8cc\	.	.	.	.	.	.	.	.	.
8f\	.	8ff\	.	.	.	.	.	.	.	.	.
8e\	.	8ee\	.	.	.	.	.	.	.	.	.
8d\J	.	8dd\J	.	.	.	.	.	.	.	.	.
!LO:LB:g=original	!	!LO:LB:g=original	!	!	!	!	!	!	!	!	!
=80	=80	=80	=80	=80	=80	=80	=80	=80	=80	=80	=80
8c#X\L	.	8cc#X\L	.	4cc#X\	.	4aa\	.	.	.	.	.
!	!	!LO:SIC:v:s=8b-\	!	!	!	!	!	!	!	!	!
8B-X\	.	8b\	.	.	.	.	.	.	.	.	.
8A\	.	8a\	.	4r	.	4r	.	.	.	.	.
8G\	.	8g\	.	.	.	.	.	.	.	.	.
8F\	.	8f\	.	4r	.	4r	.	.	.	.	.
8E\J	.	8e\J	.	.	.	.	.	.	.	.	.
!	!	!	!	!	!	!	!	!LO:LB:g=original	!	!	!
=81	=81	=81	=81	=81	=81	=81	=81	=81	=81	=81	=81
*k[]	*	*k[f#c#]	*	*k[f#c#]	*	*k[f#c#]	*	*	*	*	*
*	*	*D:	*	*D:	*	*D:	*	*	*	*	*
!LO:TX:a:t=P:problem=brak zmiany tonacji na D-dur	!	!	!	!	!	!	!	!	!	!	!
4D\	.	4d\	f	4ff#\	.	4aa\	f	4D/	4d\	4ff#\	4aa\
4r	.	4d\	.	4ff#\	.	4aa\	.	4D/	4d\	4ff#\	4aa\
4r	.	4d\	.	4ff#\	.	4aa\	.	4D/	4d\	4ff#\	4aa\
=82	=82	=82	=82	=82	=82	=82	=82	=82	=82	=82	=82
4D\	.	4d\	.	4ff#\	.	4aa\	.	4D/	4d\	4ff#\	4aa\
!LO:SIC:v:s=4F#\	!	!	!	!	!	!	!	!	!	!	!
4F\	.	4a\	.	4r	.	4r	.	4r	4r	4r	4r
4D\	.	4f#\	.	4r	.	4r	.	4r	4r	4r	4r
=83	=83	=83	=83	=83	=83	=83	=83	=83	=83	=83	=83
!	!	!LO:TX:a:t=P:problem=przed tym taktem skreślony takt	!	!	!	!	!	!LO:TX:a:t=3	!LO:TX:a:t=3	!LO:TX:a:t=3	!LO:TX:a:t=3
!	!	!	!	!	!	!	!	!LO:N:vis=0	!LO:N:vis=0	!LO:N:vis=0	!LO:N:vis=0
4B\	.	4d\	.	(8dd\L	.	(8dd\L	.	1.r	1.r	1.r	1.r
.	.	.	.	8ddd\)	.	8ddd\)	.	.	.	.	.
4A\	.	4d\	.	(8ddd\	.	(8ddd\	.	.	.	.	.
.	.	.	.	8ccc#\)	.	8ccc#\)	.	.	.	.	.
4G\	.	4d\	.	(8ccc#\	.	(8ccc#\	.	.	.	.	.
.	.	.	.	8bb\J)	.	8bb\J)	.	.	.	.	.
=84	=84	=84	=84	=84	=84	=84	=84	=84	=84	=84	=84
!LO:SIC:v:s=4F#\	!	!	!	!	!	!	!	!	!	!	!
4F\	.	4d\	.	(8bb\L	.	(8bb\L	.	.	.	.	.
.	.	.	.	8aa\)	.	8aa\)	.	.	.	.	.
4r	.	4r	.	(8gg\	.	(8gg\	.	.	.	.	.
.	.	.	.	8ff#\)	.	8ff#\)	.	.	.	.	.
4r	.	4r	.	(8ee\	.	(8ee\	.	.	.	.	.
.	.	.	.	8dd\J)	.	8dd\J)	.	.	.	.	.
!	!	!	!	!LO:LB:g=original	!	!	!	!	!	!	!
=85	=85	=85	=85	=85	=85	=85	=85	=85	=85	=85	=85
4E\	.	8A/L	p	4a\	.	4a/	.	2.r	2.r	2.r	2.r
.	.	8A/	.	.	.	.	.	.	.	.	.
!LO:SIC:v:s=4C#\	!	!	!	!	!	!	!	!	!	!	!
4C\	.	8A/	.	4gg\	p	4gg\	p	.	.	.	.
.	.	8A/	.	.	.	.	.	.	.	.	.
4D\	.	8A/	.	4ff#\	.	4ff#\	.	.	.	.	.
.	.	8A/J	.	.	.	.	.	.	.	.	.
!	!	!	!	!	!	!LO:LB:g=original	!	!	!	!	!
=86	=86	=86	=86	=86	=86	=86	=86	=86	=86	=86	=86
4AA/	.	8A/L	p	4.cc#\	.	4.cc#\	.	2.AA/	2.A/	2cc#\	2ee\
.	.	8A/	.	.	.	.	.	.	.	.	.
4G\	.	8A/	.	.	.	.	.	.	.	.	.
.	.	8A/	.	(16dd\LL	f	(16dd\LL	.	.	.	.	.
.	.	.	.	16ee\JJ)	.	16ee\JJ)	.	.	.	.	.
!LO:SIC:v:s=4F#\	!	!	!	!	!	!	!	!	!	!	!
4F\	.	8A/	.	8dd\	.	8dd\	.	.	.	4dd\	4ff#\
.	.	8A/J	.	8r	.	8r	.	.	.	.	.
=87	=87	=87	=87	=87	=87	=87	=87	=87	=87	=87	=87
!	!	!	!	!	!	!	!	!LO:TX:a:t=1	!LO:TX:a:t=1	!LO:TX:a:t=1	!LO:TX:a:t=1
4E\	.	8A/L	f	4a\	.	4a\	.	2.r	2.r	2.r	2.r
.	.	8A/	.	.	.	.	.	.	.	.	.
!LO:SIC:v:s=4C#\	!	!	!	!	!	!	!LO:DY:t=p&colon;	!	!	!	!
4C\	.	8A/	.	4gg\	.	4gg\	p	.	.	.	.
.	.	8A/	.	.	.	.	.	.	.	.	.
4D\	.	8A/	.	4ff#\	p	4ff#\	.	.	.	.	.
.	.	8A/J	.	.	.	.	.	.	.	.	.
!	!	!LO:LB:g=original	!	!	!	!	!	!	!	!	!
=88	=88	=88	=88	=88	=88	=88	=88	=88	=88	=88	=88
4AA/	.	8A/L	p	4.cc#\	.	4.cc#\	.	2.AA/	2.A/	2cc#\	2ee\
.	.	8A/	.	.	.	.	.	.	.	.	.
4G\	.	8A/	.	.	.	.	.	.	.	.	.
.	.	8A/	.	(16dd\LL	.	(16dd\LL	.	.	.	.	.
.	.	.	.	16ee\JJ)	.	16ee\JJ)	.	.	.	.	.
!LO:SIC:v:s=4F#\	!	!	!	!	!	!	!	!	!	!	!
4F\	.	8A/	.	8dd\	.	8dd\	.	.	.	4dd\	4ff#\
.	.	8A/J	.	8r	.	8r	.	.	.	.	.
!LO:LB:g=original	!	!	!	!	!	!	!	!	!	!	!
=89	=89	=89	=89	=89	=89	=89	=89	=89	=89	=89	=89
!	!	!	!	!	!	!	!	!LO:TX:a:t=1	!LO:TX:a:t=1	!LO:TX:a:t=1	!LO:TX:a:t=1
4G\	.	4B/	.	(8bb\L	.	(8bb\L	.	2.r	2.r	2.r	2.r
.	.	.	.	8aa\)	.	8aa\)	.	.	.	.	.
4r	.	4r	.	(8gg\	.	(8gg\	.	.	.	.	.
.	.	.	.	8ff#\)	.	8ff#\)	.	.	.	.	.
4r	.	4r	.	(8ee\	.	(8ee\	.	.	.	.	.
.	.	.	.	8dd\J)	.	8dd\J)	.	.	.	.	.
!	!	!	!	!	!	!	!	!	!LO:LB:g=original	!	!
=90	=90	=90	=90	=90	=90	=90	=90	=90	=90	=90	=90
8A\L	.	4A/	.	(8cc#\L	.	8cc#\L	.	2.AA/	2.A/	4cc#\	4ee\
8B\	.	.	.	8b\J)	.	8b\J	.	.	.	.	.
8A\	.	8a\L	.	4a\	.	4a\	.	.	.	(8cc#\L	8ee\L
8G\	.	8g\	.	.	.	.	.	.	.	8dd\)	8ff#\
!LO:SIC:v:s=8F#\	!	!	!	!	!	!	!	!	!	!	!
8F\	.	8f#\	.	4r	.	4r	.	.	.	(8dd\	8ff#\
8E\J	.	8e\J	.	.	.	.	.	.	.	8ee\J)	8gg\J
!	!	!	!	!	!	!	!	!	!	!LO:LB:g=original	!LO:LB:g=original
=91	=91	=91	=91	=91	=91	=91	=91	=91	=91	=91	=91
4D\	.	4d\	.	4ff#\	.	4aa\	.	4D/	4d\	4ff#\	4aa\
4r	.	4d\	.	4ff#\	.	4aa\	.	4D/	4d\	4ff#\	4aa\
4r	.	4d\	.	4ff#\	.	4aa\	.	4D/	4d\	4ff#\	4aa\
=92	=92	=92	=92	=92	=92	=92	=92	=92	=92	=92	=92
4D\	.	4d\	.	4ff#\	.	4aa\	.	4D/	4d\	4ff#\	4aa\
!LO:SIC:v:s=4F#\	!	!	!	!	!	!	!	!	!	!	!
4F\	.	4a\	.	4r	.	4r	.	4r	4r	4r	4r
4D\	.	4f#\	.	4r	.	4r	.	4r	4r	4r	4r
!	!	!	!	!LO:LB:g=original	!	!LO:LB:g=original	!	!LO:LB:g=original	!	!	!
=93	=93	=93	=93	=93	=93	=93	=93	=93	=93	=93	=93
!	!	!	!	!	!	!	!	!LO:TX:a:t=3	!LO:TX:a:t=3	!LO:TX:a:t=3	!LO:TX:a:t=3
!	!	!	!	!	!	!	!	!LO:N:vis=0	!LO:N:vis=0	!LO:N:vis=0	!LO:N:vis=0
4B\	.	4d\	.	(8dd\L	.	(8dd\L	.	1.r	1.r	1.r	1.r
.	.	.	.	8ddd\)	.	8ddd\)	.	.	.	.	.
4A\	.	4d\	.	(8ddd\	.	(8ddd\	.	.	.	.	.
.	.	.	.	8ccc#\)	.	8ccc#\)	.	.	.	.	.
4G\	.	4d\	.	(8ccc#\	.	(8ccc#\	.	.	.	.	.
.	.	.	.	8bb\J)	.	8bb\J)	.	.	.	.	.
=94	=94	=94	=94	=94	=94	=94	=94	=94	=94	=94	=94
!LO:SIC:v:s=4F#	!	!	!	!	!	!	!	!	!	!	!
4F\	.	4d\	.	(8bb\L	.	(8bb\L	.	.	.	.	.
.	.	.	.	8aa\)	.	8aa\)	.	.	.	.	.
4r	.	4r	.	(8gg\	.	(8gg\	.	.	.	.	.
.	.	.	.	8ff#\)	.	8ff#\)	.	.	.	.	.
4r	.	4r	.	(8ee\	.	(8ee\	.	.	.	.	.
.	.	.	.	8dd\J)	.	8dd\J)	.	.	.	.	.
=95	=95	=95	=95	=95	=95	=95	=95	=95	=95	=95	=95
4E\	.	8A/L	f	4a\	.	4a/	.	2.r	2.r	2.r	2.r
.	.	8A/	.	.	.	.	.	.	.	.	.
!LO:SIC:v:s=4C#\	!	!	!	!	!	!	!LO:DY:t=p&colon;.	!	!	!	!
4C\	.	8A/	.	4gg\	p	4gg\	p	.	.	.	.
.	.	8A/	.	.	.	.	.	.	.	.	.
4D\	.	8A/	.	4ff#\	.	4ff#\	.	.	.	.	.
.	.	8A/J	.	.	.	.	.	.	.	.	.
=96	=96	=96	=96	=96	=96	=96	=96	=96	=96	=96	=96
4AA/	.	8A/L	p	4.cc#\	f	4.cc#\	.	2.AA/	2.A/	2cc#\	2ee\
.	.	8A/	.	.	.	.	.	.	.	.	.
4G\	.	8A/	.	.	.	.	.	.	.	.	.
.	.	8A/	.	(16dd\LL	.	(16dd\LL	.	.	.	.	.
.	.	.	.	16ee\JJ)	.	16ee\JJ)	.	.	.	.	.
!LO:SIC:v:s=4F#\	!	!	!	!	!	!	!	!	!	!	!
4G\	.	8A/	.	8dd\	.	8dd\	.	.	.	4dd\	4ff#\
.	.	8A/J	.	8r	.	8r	.	.	.	.	.
!	!	!LO:LB:g=original	!	!	!	!	!	!	!	!	!
=97	=97	=97	=97	=97	=97	=97	=97	=97	=97	=97	=97
!	!	!	!	!	!	!	!	!LO:TX:a:t=1	!LO:TX:a:t=1	!LO:TX:a:t=1	!LO:TX:a:t=1
4E\	.	8A/L	f	4a\	.	4a\	.	2.r	2.r	2.r	2.r
.	.	8A/	.	.	.	.	.	.	.	.	.
!LO:SIC:v:s=4C#\	!	!	!	!	!	!	!	!	!	!	!
4C\	.	8A/	.	4gg\	p	4gg\	p	.	.	.	.
.	.	8A/	.	.	.	.	.	.	.	.	.
4D\	.	8A/	.	4ff#\	.	4ff#\	.	.	.	.	.
.	.	8A/J	.	.	.	.	.	.	.	.	.
!LO:LB:g=original	!	!	!	!	!	!	!	!	!	!	!
=98	=98	=98	=98	=98	=98	=98	=98	=98	=98	=98	=98
4AA/	.	8A/L	p	4.cc#\	.	4.cc#\	f	2.AA/	2.A/	2cc#\	2ee\
.	.	8A/	.	.	.	.	.	.	.	.	.
4G\	.	8A/	.	.	.	.	.	.	.	.	.
.	.	8A/	.	(16dd\LL	.	(16dd\LL	.	.	.	.	.
.	.	.	.	16ee\JJ)	.	16ee\JJ)	.	.	.	.	.
!LO:SIC:v:s=4F#\	!	!	!	!	!	!	!	!	!	!	!
4F\	.	8A/	.	8dd\	.	8dd\	.	.	.	4dd\	4ff#\
.	.	8A/J	.	8r	.	8r	.	.	.	.	.
*	*	*Xtremolo	*	*	*	*	*	*	*	*	*
!	!	!	!	!	!	!LO:LB:g=original	!	!	!	!	!
=99	=99	=99	=99	=99	=99	=99	=99	=99	=99	=99	=99
!	!	!	!	!LO:TUP:a	!	!	!	!	!	!LO:TUP:a:problem=klamra łukowa,kropka zamiast numeru	!LO:TUP:a:problem=klamra łukowa
4G\	.	4B/	.	12gg\L	.	12bb\L	.	4r	4r	12gg\L	12bb\L
.	.	.	.	12ff#\	.	12aa\	.	.	.	12ff#\	12aa\
.	.	.	.	12ee\J	.	12gg\J	.	.	.	12ee\J	12gg\J
4A\	.	4A/	.	4dd\	.	4ff#\	.	4AA/	4A/	4dd\	4ff#\
4AA/	.	4A/	.	4cc#\	.	4eeT\	.	4AA/	4A/	4cc#\	4ee\
!	!	!	!	!LO:LB:g=original	!	!	!	!	!	!	!
=100	=100	=100	=100	=100	=100	=100	=100	=100	=100	=100	=100
*	*	*	*	*	*	*	*	*	*2\right	*	*
2.D\	.	2.A/	.	2.dd\	.	2.dd\	.	2.D/	2.d\	2.dd\	2.dd\
==:|!	==:|!	==:|!	==:|!	==:|!	==:|!	==:|!	==:|!	==:|!	==:|!	==:|!	==:|!
*-	*-	*-	*-	*-	*-	*-	*-	*-	*-	*-	*-
!!!system-decoration: [g1][g2][g3]
!!!RDF**dynam: p = "p."
!!!RDF**dynam: f = "f."
!!!ENC: Marta Lawrence
!!!END: 2020-11-12
!!!ENC: Andrzej Borzym
!!!END: 2020-06-06
